docs/.gitbook/assets/icon-pause-16@light.svg

<svg width="32" height="32" viewBox="0 0 16 16" fill="none" xmlns="http://www.w3.org/2000/svg">
<rect x="0" y="0" width="16" height="16" fill="#fff"/>
<path fill-rule="evenodd" clip-rule="evenodd" d="M8 2.5C4.96243 2.5 2.5 4.96243 2.5 8C2.5 11.0376 4.96243 13.5 8 13.5C11.0376 13.5 13.5 11.0376 13.5 8C13.5 4.96243 11.0376 2.5 8 2.5ZM1 8C1 4.13401 4.13401 1 8 1C11.866 1 15 4.13401 15 8C15 11.866 11.866 15 8 15C4.13401 15 1 11.866 1 8ZM6.25 5C6.66421 5 7 5.33579 7 5.75V10.25C7 10.6642 6.66421 11 6.25 11C5.83579 11 5.5 10.6642 5.5 10.25V5.75C5.5 5.33579 5.83579 5 6.25 5ZM9.75 5C10.1642 5 10.5 5.33579 10.5 5.75V10.25C10.5 10.6642 10.1642 11 9.75 11C9.33579 11 9 10.6642 9 10.25V5.75C9 5.33579 9.33579 5 9.75 5Z" fill="#000"/>
</svg>

<svg xmlns="http://www.w3.org/2000/svg" width="32" height="32" fill="none" viewBox="0 0 16 16"><path fill="#fff" d="M0 0h16v16H0z"/><path fill="#000" fill-rule="evenodd" d="M8 2.5a5.5 5.5 0 1 0 0 11 5.5 5.5 0 0 0 0-11M1 8a7 7 0 1 1 14 0A7 7 0 0 1 1 8m5.25-3a.75.75 0 0 1 .75.75v4.5a.75.75 0 0 1-1.5 0v-4.5A.75.75 0 0 1 6.25 5m3.5 0a.75.75 0 0 1 .75.75v4.5a.75.75 0 0 1-1.5 0v-4.5A.75.75 0 0 1 9.75 5" clip-rule="evenodd"/></svg>
